img/spinner-blue.svg

<svg xmlns="http://www.w3.org/2000/svg" width="23" height="23"><g fill-rule="evenodd"><path d="M11.168 15.204c.511 0 .925.415.925.926v4.627c0 .511-.414.926-.925.926-.511 0-.926-.415-.926-.926V16.13c0-.511.415-.926.926-.926z" fill="#99c7ff"/><path d="M22.017 10.834c0 .511-.415.925-.926.925h-4.627c-.511 0-.926-.414-.926-.925 0-.511.415-.926.926-.926h4.627c.511 0 .926.415.926.926z" opacity=".5" fill="#e5f1ff"/><path d="M6.488 10.834c0 .511-.414.925-.925.925H.935c-.511 0-.925-.414-.925-.925 0-.511.414-.926.925-.926h4.628c.511 0 .925.415.925.926z" fill="#4c9dff"/><path d="M8.604 14.578c.437.263.578.832.315 1.27l-2.388 3.964c-.264.437-.832.579-1.27.315-.438-.264-.579-.833-.315-1.27l2.387-3.964c.264-.438.833-.579 1.271-.315z" fill="#7fb9ff"/><path d="M20.461 16.432c-.264.438-.833.579-1.27.315l-3.964-2.388c-.438-.263-.579-.832-.315-1.27.263-.438.832-.579 1.27-.315l3.964 2.387c.437.264.579.833.315 1.271z" fill="#cce3ff" opacity=".6"/><path d="M7.115 8.579c-.264.438-.833.579-1.27.315L1.881 6.507c-.438-.264-.579-.833-.315-1.271.263-.438.832-.579 1.27-.315L6.8 7.309c.438.263.579.832.315 1.27z" fill="#338fff"/><path d="M20.662 5.585c.247.447.085 1.01-.362 1.258l-4.05 2.239c-.447.247-1.01.085-1.257-.363-.248-.447-.086-1.01.362-1.257l4.049-2.239c.448-.248 1.011-.085 1.258.362z" opacity=".3" fill="#e5f1ff"/><path d="M7.034 12.948c.247.448.085 1.011-.362 1.258l-4.05 2.239c-.447.247-1.01.085-1.258-.362-.247-.447-.085-1.01.362-1.258l4.05-2.239c.447-.247 1.01-.085 1.258.362z" fill="#66abff"/><path d="M16.417 20.328c-.447.247-1.01.085-1.258-.362l-2.239-4.05c-.247-.447-.085-1.01.362-1.257.448-.248 1.011-.086 1.258.362l2.239 4.049c.247.448.085 1.011-.362 1.258z" fill="#b2d5ff" opacity=".8"/><path d="M8.744 7.009c-.447.248-1.01.085-1.258-.362l-2.239-4.05C5 2.15 5.162 1.587 5.609 1.34c.448-.248 1.011-.085 1.258.362l2.239 4.05c.247.447.085 1.01-.362 1.257z" fill="#1981ff"/><path d="M10.859-.015c.511 0 .925.415.925.926v4.627c0 .511-.414.926-.925.926-.512 0-.926-.415-.926-.926V.911c0-.511.414-.926.926-.926z" fill="#0072ff"/></g></svg>

<svg xmlns="http://www.w3.org/2000/svg" width="23" height="23" viewBox="0 0 23 23">
  <defs>
    <style>
      .cls-1 {
        fill: #99c7ff;
      }

      .cls-1, .cls-10, .cls-11, .cls-2, .cls-3, .cls-4, .cls-5, .cls-6, .cls-7, .cls-8, .cls-9 {
        fill-rule: evenodd;
      }

      .cls-2, .cls-7 {
        fill: #e5f1ff;
      }

      .cls-2 {
        opacity: 0.5;
      }

      .cls-3 {
        fill: #4c9dff;
      }

      .cls-4 {
        fill: #7fb9ff;
      }

      .cls-5 {
        fill: #cce3ff;
        opacity: 0.6;
      }

      .cls-6 {
        fill: #338fff;
      }

      .cls-7 {
        opacity: 0.3;
      }

      .cls-8 {
        fill: #66abff;
      }

      .cls-9 {
        fill: #b2d5ff;
        opacity: 0.8;
      }

      .cls-10 {
        fill: #1981ff;
      }

      .cls-11 {
        fill: #0072ff;
      }
    </style>
  </defs>
  <g>
    <path d="M11.168,15.204 C11.679,15.204 12.093,15.619 12.093,16.130 L12.093,20.757 C12.093,21.268 11.679,21.683 11.168,21.683 C10.657,21.683 10.242,21.268 10.242,20.757 L10.242,16.130 C10.242,15.619 10.657,15.204 11.168,15.204 Z" class="cls-1"/>
    <path d="M22.017,10.834 C22.017,11.345 21.602,11.759 21.091,11.759 L16.464,11.759 C15.953,11.759 15.538,11.345 15.538,10.834 C15.538,10.323 15.953,9.908 16.464,9.908 L21.091,9.908 C21.602,9.908 22.017,10.323 22.017,10.834 Z" class="cls-2"/>
    <path d="M6.488,10.834 C6.488,11.345 6.074,11.759 5.563,11.759 L0.935,11.759 C0.424,11.759 0.010,11.345 0.010,10.834 C0.010,10.323 0.424,9.908 0.935,9.908 L5.563,9.908 C6.074,9.908 6.488,10.323 6.488,10.834 Z" class="cls-3"/>
    <path d="M8.604,14.578 C9.041,14.841 9.182,15.410 8.919,15.848 L6.531,19.812 C6.267,20.249 5.699,20.391 5.261,20.127 C4.823,19.863 4.682,19.294 4.946,18.857 L7.333,14.893 C7.597,14.455 8.166,14.314 8.604,14.578 Z" class="cls-4"/>
    <path d="M20.461,16.432 C20.197,16.870 19.628,17.011 19.191,16.747 L15.227,14.359 C14.789,14.096 14.648,13.527 14.912,13.089 C15.175,12.651 15.744,12.510 16.182,12.774 L20.146,15.161 C20.583,15.425 20.725,15.994 20.461,16.432 Z" class="cls-5"/>
    <path d="M7.115,8.579 C6.851,9.017 6.282,9.158 5.845,8.894 L1.881,6.507 C1.443,6.243 1.302,5.674 1.566,5.236 C1.829,4.798 2.398,4.657 2.836,4.921 L6.800,7.309 C7.238,7.572 7.379,8.141 7.115,8.579 Z" class="cls-6"/>
    <path d="M20.662,5.585 C20.909,6.032 20.747,6.595 20.300,6.843 L16.250,9.082 C15.803,9.329 15.240,9.167 14.993,8.719 C14.745,8.272 14.907,7.709 15.355,7.462 L19.404,5.223 C19.852,4.975 20.415,5.138 20.662,5.585 Z" class="cls-7"/>
    <path d="M7.034,12.948 C7.281,13.396 7.119,13.959 6.672,14.206 L2.622,16.445 C2.175,16.692 1.612,16.530 1.364,16.083 C1.117,15.636 1.279,15.073 1.726,14.825 L5.776,12.586 C6.223,12.339 6.786,12.501 7.034,12.948 Z" class="cls-8"/>
    <path d="M16.417,20.328 C15.970,20.575 15.407,20.413 15.159,19.966 L12.920,15.916 C12.673,15.469 12.835,14.906 13.282,14.659 C13.730,14.411 14.293,14.573 14.540,15.021 L16.779,19.070 C17.026,19.518 16.864,20.081 16.417,20.328 Z" class="cls-9"/>
    <path d="M8.744,7.009 C8.297,7.257 7.734,7.094 7.486,6.647 L5.247,2.597 C5.000,2.150 5.162,1.587 5.609,1.340 C6.057,1.092 6.620,1.255 6.867,1.702 L9.106,5.752 C9.353,6.199 9.191,6.762 8.744,7.009 Z" class="cls-10"/>
    <path d="M10.859,-0.015 C11.370,-0.015 11.784,0.400 11.784,0.911 L11.784,5.538 C11.784,6.049 11.370,6.464 10.859,6.464 C10.347,6.464 9.933,6.049 9.933,5.538 L9.933,0.911 C9.933,0.400 10.347,-0.015 10.859,-0.015 Z" class="cls-11"/>
  </g>
</svg>
